X:17
T: DA DROBEN AUF JENEM BERGE
N: F0064
O: Europa, Mitteleuropa, Deutschland
R: Liebe, Schmerz, Schaefer - Lied
M: 4/4
L: 1/8
K: Bb
F | B2BB_d2cB | f3cc2z
c | _d3de3e | f6z
f | f3BB2cd | e2e2z3
e | e2FFF2GA | B6z

@@@ Tune index: 5448
